material/.icons/material/human-female.svg

<svg xmlns="http://www.w3.org/2000/svg" viewBox="0 0 24 24"><path d="M12 2a2 2 0 012 2 2 2 0 01-2 2 2 2 0 01-2-2 2 2 0 012-2m-1.5 20v-6h-3l2.59-7.59C10.34 7.59 11.1 7 12 7c.9 0 1.66.59 1.91 1.41L16.5 16h-3v6h-3z"/></svg>

<?xml version="1.0" encoding="UTF-8"?><!DOCTYPE svg PUBLIC "-//W3C//DTD SVG 1.1//EN" "http://www.w3.org/Graphics/SVG/1.1/DTD/svg11.dtd"><svg xmlns="http://www.w3.org/2000/svg" xmlns:xlink="http://www.w3.org/1999/xlink" version="1.1" id="mdi-human-female" width="24" height="24" viewBox="0 0 24 24"><path d="M12,2A2,2 0 0,1 14,4A2,2 0 0,1 12,6A2,2 0 0,1 10,4A2,2 0 0,1 12,2M10.5,22V16H7.5L10.09,8.41C10.34,7.59 11.1,7 12,7C12.9,7 13.66,7.59 13.91,8.41L16.5,16H13.5V22H10.5Z" /></svg>
